X:12
T:Bill O'Keeffe's Reel #1 
F:file ID: jol/012bok1
Z:bill@capeirish.com
B:JOL.162
Q:180
L:1/8
M:4/4
R:reel
K:Em
fe|dB ~B2 dB ~B2|dB ~B2 f2 fe|dB ~B2 dB ~B2|^cBAc e2 fe|
dB ~B2 dB ~B2|dB ~B2 g2 fe|dB ~B2 dBBA|FADF E4 ||
g3e fgfd|edB^c d2ef|g3e fede|fbba feef|
g3e fgfd|edB^c d3e|f2ed B2AB|AFDF HE4 ||

